X:31
T:H\'e bien. [FJ31]
S:Festin joyeux.  Music page 15.
Z:transcribed by Eric Conrad, 2021.
N:NB The meter is given simply as "2"
N:NB In the MS, the G is the bottom line of the staff
N:NB Repeat marks were added at beginning and end.
N:NB The MS repeat mark is 4 vertical dots enclosed by bars on both sides.
N:NB The plus signs seem to indicate some kind of roll or trill.
N:NB1 MS has "|d2::", transcribed here as "|1d4:|2d3|:" to accommodate full measure in A and pickup in B.
N:NB1 MS has "|c2::", transcribed here as "|1c3:|2c4|:" to accommodate pickup in B and full measure in A.
M:2/2
L:1/4
% K:C clef=treble1 % MS has G on line 1 (staff GBdfa - good boys do fine always)
K:C % no sharps and flats in signature, ending on C (second space in MS)
|: c2 c>d | B>A B>c | d>c d>e | d>c B>c |1 "_NB1["d4 :|2 d3"_]" ||
|: c | d>e d>c | d2 "^+"B>c | f>e d>c | B>A B>G | A2 "^+"B2 |1 "_NB2["c3 :|2 c4 |]


